X: 1548
T: Angie Forregan Of Abriachan
R: waltz
M: 3/4
K: Dmajor
a3/2g/|:f3 d c3/2d/|B g3 g3/2a/|f3 f e3/2d/|g3 g a3/2g/|
f2e2d2|b2 (a2 a3/2)f/|f(e e4|e4) a3/2g/|
f3 d c3/2d/|B g3 g3/2a/|f3 f e3/2d/|g3 g a3/2g/|
f2e2d2|e2 A2 c2|c(d d4)|1 d4 a3/2g/:|2 d4 f3/2g/||
|:f2d2c2|A4 f3/2g/|f2 b2 a2|e4 f3/2g/|
f2e2d2|ad'4c'|(a6|a3) b a3/2f/||
g2 g3/2f/ g3/2a/|g2 f2 e3/2d/|f3/2g/ f3/2d/ c3/2A/|F3 F E3/2F/|
G2 G3/2F/ G3/2A/|B2 B3/2A/ (3Bcd|1 e4 f3/2g/:|2 e4 a3/2g/||

